X: 37563
T: Smash The Windows
R: jig
M: 6/8
K: Dmajor
|:D|A,2D F2A|d2f ecA|B2d G2B|A2B AFD|
A,2D F2A|d2f ecA|faf gec|d3 d2:|
|:f/g/|a2f d2A|A2a agf|g2e c2A|A2g gfe|
f2d g2e|a2f b2g|faf gec|d3 d2:|

